X: 1
T: String Quartet in F Major opus 50 no 5 mvt 4
C: Franz Joseph Haydn
%%abc-version 2.0
%%abcx-abcm2ps-target-version 5.9.1 (29 Sep 2008)
%%abc-creator hum2abc beta
%%abcx-conversion-date 2021/02/14 14:38:32
%%abc-copyright Copyright (c) 1994, 2000 Center for Computer Assisted Research in the Humanities
%%abc-edited-by Frances Bennion
%%abcx-initial-encoding-date 1997/04/15
%%gracespace 0 6 6
%%humdrum-veritas 1224482602
%%humdrum-veritas-data 1824996423
%%linebreak <none>
%%barnumbers 0
L: 1/8
M: 6/8
N: Derived from op50n5-04.krn
Q: "Finale: Vivace"
%%staves [1 2 3 4]
V: 1
V: 2
V: 3 clef=alto
V: 4 clef=bass
K: F
[V:1]z4 zF/A/ [I:setbarnb1]|
[V:2]z4 zz |
[V:3]z4 zz |
[V:4](3:2:2z4z/ z|
[V:1]ccc c>=Bc |
[V:2]F2E F2E |
[V:3]A,2B, A,2B, |
[V:4]F,2G, F,2G, |
[V:1]c>=Bc c>Bc |
[V:2]F2E F2E |
[V:3]A,2B, A,2B, |
[V:4]F,2G, F,2G, |
[V:1]c2f f2a |
[V:2]FAA AAA |
[V:3]A,CC CCC |
[V:4]F,F,F, F,F,F, |
[V:1]a2c' c'2G,/A,/ |
[V:2]AAA Az2 |
[V:3]CCC Cz2 |
[V:4]F,F,F, F,z2 |
[V:1]B,B,B, B,>A,B, |
[V:2]G2^F G2F |
[V:3]E,2E, E,2E, |
[V:4]C,,2_D,, C,,2D,, |
[V:1]B,>A,B, B,>A,B, |
[V:2]G2^F G2F |
[V:3]E,2E, E,2E, |
[V:4]C,,2_D,, C,,2D,, |
[V:1]B,2E E2G |
[V:2]G[B,G][GB,] [GB,][B,G][GB,] |
[V:3]E,E,E, E,E,E, |
[V:4]C,,C,,C,, C,,C,,C,, |
[V:1]G2B B2B, |
[V:2][GB,][GB,][GB,] [GB,][B,G][B,G] |
[V:3]E,E,E, E,E,E, |
[V:4]C,,C,,C,, C,,C,,C,, |
[V:1]A,FF F>EF |
[V:2][A,F]A,A, CCC |
[V:3]F,A,C FCA, |
[V:4]F,,F,,F,, A,,A,,A,, |
[V:1]DBB B>AB |
[V:2]DDD DDD |
[V:3]B,DF DB,F, |
[V:4]B,,B,,B,, B,,B,,B,, |
[V:1]CCC CDE |
[V:2]B,B,B, B,A,G, |
[V:3]E,E,E, E,F,G, |
[V:4]C,C,C, C,C,C, |
[V:1]F2z3 F/A/ |
[V:2]A,2z4 |
[V:3]F,2z4 |
[V:4]F,,2z4 |
[V:1]ccc c>=Bc |
[V:2]zFE zFE |
[V:3]zA,B, zA,B, |
[V:4]zF,G, zF,G, |
[V:1]c>=Bc c>Bc |
[V:2]zFE zFE |
[V:3]zA,B, zA,B, |
[V:4]zF,G, zF,G, |
[V:1]c2f f2a |
[V:2]FAA AAA |
[V:3]A,CC CCC |
[V:4]F,F,F, F,F,F, |
[V:1]a2c' c'2G,/A,/ |
[V:2]AAA Az2 |
[V:3]CCC Cz2 |
[V:4]F,F,F, F,z2 |
[V:1]B,B,B, B,>A,B, |
[V:2]zG^F zGF |
[V:3]zE,E, zE,E, |
[V:4]zC,,_D,, zC,,D,, |
[V:1]B,>A,B, B,>A,B, |
[V:2]zG^F zGF |
[V:3]zE,E, zE,E, |
[V:4]zC,,_D,, zC,,D,, |
[V:1]B,2E E2G |
[V:2]G[B,G][GB,] [GB,][GB,][GB,] |
[V:3]E,E,E, E,E,E, |
[V:4]C,,C,,C,, C,,C,,C,, |
[V:1]G2B B2B, |
[V:2][GB,][GB,][GB,] [GB,][GB,][GB,] |
[V:3]E,E,E, E,E,E, |
[V:4]C,,C,,C,, C,,C,,C,, |
[V:1]A,FF F>EF |
[V:2][A,F]A,A, CCC |
[V:3]F,A,C FCA, |
[V:4]F,,F,,F,, A,,A,,A,, |
[V:1]DBB B>AB |
[V:2]DDD DDD |
[V:3]B,DF BFD |
[V:4]B,,B,,B,, B,,B,,B,, |
[V:1]Gdd d>ef |
[V:2]GGG GGG |
[V:3]F4 ED |
[V:4]B,,B,,B,, =B,,B,,B,, |
[V:1]A2>G2 zc/e/ |
[V:2]F2>E2 z2 |
[V:3]C2z4 |
[V:4]C,CC, C,2z |
[V:1]ggg g>^fg |
[V:2]C/D/E/F/G/A/ =B/c/d/e/d/c/ |
[V:3]z6 |
[V:4]z6 |
[V:1]g6- |
[V:2]fff f>ef |
[V:3]z6 |
[V:4]G,,/A,,/=B,,/C,/D,/E,/ F,/G,/A,/=B,/A,/G,/ |
[V:1]ggg g>^fg |
[V:2]e4 =Bc |
[V:3]C,/D,/E,/F,/G,/A,/ =B,/C/D/E/D/C/ |
[V:4]C2z4 |
[V:1]g6- |
[V:2]=B/c/d/c/B/A/ G/F/E/D/C/=B,/ |
[V:3]FFF F>EF |
[V:4]G,,/A,,/=B,,/C,/D,/E,/ F,/G,/A,/=B,/A,/G,/ |
[V:1]g/=b/c'/b/c'/b/ c'/d'/_e'/d'/e'/d'/ |
[V:2]CGG GGG |
[V:3]_EEE EEE |
[V:4]CCC CCC |
[V:1]_e'c'_a _ec_A |
[V:2]_A6 |
[V:3]_E6 |
[V:4]C6- |
[V:1]G3 ^F3 |
[V:2]_E6 |
[V:3]C6 |
[V:4]CCC CCC |
[V:1]G/A/=B/A/G/A/ B/c/d/c/B/c/ |
[V:2]D2z G2z |
[V:3]D2z D2z |
[V:4]=B,2z B,2z |
[V:1]d/e/f/e/d/e/ f/e/d/e/f/g/ |
[V:2]G2z G2z |
[V:3]D2z D2z |
[V:4]=B,2z B,2z |
[V:1]a6 |
[V:2]F2z4 |
[V:3]D2z4 |
[V:4]=B,2z4 |
[V:1]a2>g2 gg |
[V:2]=B2>c2 cc |
[V:3]z6 |
[V:4]F,/G,/A,/=B,/C/D/ EEE |
[V:1]f2>e2 ee |
[V:2]=B2c/d/ GGG |
[V:3]z6 |
[V:4]D,/E,/F,/G,/A,/=B,/ CCC |
[V:1]A/=B/c/d/e/f/ B/c/d/e/f/g/ |
[V:2]FED GFE |
[V:3]z6 |
[V:4]z6 |
[V:1]c/d/e/f/g/a/ d/e/f/g/a/=b/ |
[V:2]AGF =BAG |
[V:3]z6 |
[V:4]z6 |
[V:1]c'2e' g'2e' |
[V:2]c2e g2e |
[V:3]z6 |
[V:4]z6 |
[V:1]c'ge cA^F |
[V:2]cGE cA^F |
[V:3]z2E CA,^F, |
[V:4]z2E, C,A,,^F,, |
[V:1]Gce g2^g |
[V:2]G3 E3 |
[V:3]G,CE G2^G |
[V:4]G,,6- |
[V:1]a^fg e=f^d |
[V:2]F^DE ^C=D=B, |
[V:3]A^FG E=F^D |
[V:4]G,,6- |
[V:1]e=Bc Adf |
[V:2]CDE F3 |
[V:3]E=B,C A,DF |
[V:4]G,,3 F,,3 |
[V:1]c3 d3 |
[V:2]EGc =BGF |
[V:3]G,6 |
[V:4]G,,2z3 (3G,,/A,,/=B,,/ |
[V:1]cz2 f3 |
[V:2]E2z A3 |
[V:3]C,2z4 |
[V:4]C,C,C, C,>=B,,C, |
[V:1]ez2 d3 |
[V:2]Gz2 F3 |
[V:3]z6 |
[V:4]C,C,C, C,>=B,,C, |
[V:1]cz2 A/=B/c/d/e/f/ |
[V:2]Ez2 A3 |
[V:3]z3 F3 |
[V:4]C,C,C, C,>=B,,C, |
[V:1]g/a/=b/c'/d'/e'/ f'f'/e'/f' |
[V:2]Gz2 =B3 |
[V:3]Ez2 D3 |
[V:4]C,C,C, C,>=B,,C, |
[V:1]e'z2 =bb/a/b |
[V:2]cz2 ff/e/f |
[V:3]Cz2 dd/c/d |
[V:4]C,,C,/=B,,/C, C,C,C, |
[V:1]c'z2 ff/e/f |
[V:2]ez2 =BB/c/B |
[V:3]cz2 DD/C/D |
[V:4]C,,C,/=B,,/C, C,C,C, |
[V:1]ez2 =BB/A/B |
[V:2]cz2 FF/E/F |
[V:3]Cz2 DD/C/D |
[V:4]C,,C,/=B,,/C, C,C,C, |
[V:1]czE/G/ ccc |
[V:2]Ez2 GGG |
[V:3]Cz2 EEE |
[V:4]C,,(3:2:2z4 z/|
[V:1]czE/G/B BB|
[V:2]Gz2 GGG |
[V:3]Ez2 EEE |
[V:4]z6 |
[V:1]Bz4 E/^G/ |
[V:2]Gz4 z |
[V:3]Ez4 z |
[V:4]z6 |
[V:1]AAA Az^c/e/ |
[V:2]EEE Ez2 |
[V:3]A,A,A, A,z2 |
[V:4]^C,C,C, C,z2 |
[V:1]gza/^c'/ e'zD/F/ |
[V:2]z6 |
[V:3]z6 |
[V:4]z6 |
[V:1]A/d/A/G/F/E/ D/F/E/D/^C/A,/ |
[V:2]A,6- |
[V:3]F,2G, A,2G, |
[V:4]D,2E, F,2E, |
[V:1]D/F/E/D/^C/A,/ D/F/E/D/C/A,/ |
[V:2]A,6- |
[V:3]F,2G, F,2G, |
[V:4]D,2E, D,2E, |
[V:1]D/F/A/^c/d/f/ a/g/^f/_e/d/=c/ |
[V:2]A,3 c2A |
[V:3]F,3 D,2D |
[V:4]D,3 ^F,,2^F, |
[V:1]B/d/B/G/^F/D/ G/B/A/G/F/D/ |
[V:2]GDD D>^CD |
[V:3]B,2C D2C |
[V:4]G,2A, B,2A, |
[V:1]G/B/A/G/^F/D/ G/B/A/G/F/D/ |
[V:2]D>^CD D>CD |
[V:3]B,2C B,2C |
[V:4]G,2A, G,2A, |
[V:1]G/B/d/^f/g/b/ d'/c'/=b/a/g/=f/ |
[V:2]D3 F2D |
[V:3]B,3 G,3- |
[V:4]G,3 =B,,3 |
[V:1]e/g/e/c/=B/G/ c/e/d/c/B/G/ |
[V:2]CGG G>^FG |
[V:3]G,EF G2F |
[V:4]C,2D, E,2D, |
[V:1]c/e/d/c/=B/G/ c/e/d/c/B/G/ |
[V:2]G>^FG G>FG |
[V:3]zEF zE,F, |
[V:4]zC,D, zC,D, |
[V:1]c/d/e/f/g/a/ b/g/e/c/B/G/ |
[V:2]G6 |
[V:3]E,4 GB |
[V:4]C,3 E,,2E, |
[V:1]Aaa a3 |
[V:2]Fff f3 |
[V:3]A/B/c/B/A/G/ F/G/A/G/F/E/ |
[V:4]F,/G,/A,/G,/F,/E,/ D,/E,/F,/E,/D,/C,/ |
[V:1]gd'd' d'3 |
[V:2]dBF G3- |
[V:3]D3 B/c/d/c/B/A/ |
[V:4]B,,/C,/D,/C,/B,,/A,,/ G,,/A,,/B,,/A,,/G,,/F,,/ |
[V:1]^c'c'c' e'ag |
[V:2]G/A/B/A/G/F/ E3 |
[V:3]GEF GAA |
[V:4]E,,/F,,/G,,/F,,/E,,/D,,/ ^C,,/E,,/A,,/^C,/E,/C,/ |
[V:1]f/g/a/g/f/e/ d/e/f/e/d/c/ |
[V:2]A,z4 z |
[V:3]FFF F>EF |
[V:4]D,DD D>CD |
[V:1]=B/c/d/f/d/c/ B/c/d/c/B/A/ |
[V:2]z6 |
[V:3]F,FF F>EF |
[V:4]D,DD D>CD |
[V:1]^G/=B/e/^g/=b/g/ a/e/d/c/B/A/ |
[V:2]e2d c2^d |
[V:3]Ez=B czc |
[V:4]EE,E, E,E,E, |
[V:1]^G/=B/e/^g/=b/g/ a/e/d/c/B/A/ |
[V:2]eED C2^D |
[V:3]=Bz=B, CzC |
[V:4]E,E,E, E,E,E, |
[V:1]E2e f^de |
[V:2]E2C D=B,C |
[V:3]=B,2E F^DE |
[V:4]E,6- |
[V:1]^cd=B =c^GA |
[V:2]^A,=B,^G, =A,B,C |
[V:3]^CD=B, =C^G,A, |
[V:4]E,6- |
[V:1]B2^c egb |
[V:2]^C6 |
[V:3]G,6 |
[V:4]E,6 |
[V:1]^gae =gfd |
[V:2]D2z4 |
[V:3]A,2z4 |
[V:4]F,2z4 |
[V:1]c=Ba ^fgB |
[V:2]D2z4 |
[V:3]G,2z4 |
[V:4]F,2z4 |
[V:1]dce dfe |
[V:2]C2z4 |
[V:3]G,2z4 |
[V:4]E,2z4 |
[V:1]gfa gba |
[V:2]z6 |
[V:3]z6 |
[V:4]z6 |
[V:1]c'bg ecB |
[V:2]z4 zB |
[V:3]z4 zB, |
[V:4](3:2:2z4z/ B,|
[V:1]GEC B,EG |
[V:2]GEC G,CE |
[V:3]G,E,C, CB,G, |
[V:4]G,E,C, B,,G,,E,, |
[V:1]B2z3 F/A/ |
[V:2]G2z4 |
[V:3]E,2z4 |
[V:4]C,,2z4 |
[V:1]ccc c>=Bc |
[V:2]F2E F2E |
[V:3]A,2B, A,2B, |
[V:4]F,2G, F,2G, |
[V:1]c>=Bc c>Bc |
[V:2]F2E F2E |
[V:3]A,2B, A,2B, |
[V:4]F,2G, F,2G, |
[V:1]c2f f2a |
[V:2]FAA AAA |
[V:3]A,CC CCC |
[V:4]F,F,F, F,F,F, |
[V:1]a2c' c'2G,/A,/ |
[V:2]AAA Az2 |
[V:3]CCC Cz2 |
[V:4]F,F,F, F,z2 |
[V:1]B,B,B, B,>A,B, |
[V:2]G2^F G2F |
[V:3]E,2E, E,2E, |
[V:4]C,,2_D,, C,,2D,, |
[V:1]B,>A,B, B,>A,B, |
[V:2]G2^F G2F |
[V:3]E,2E, E,2E, |
[V:4]C,,2_D,, C,,2D,, |
[V:1]B,2E E2G |
[V:2]G[B,G][GB,] [GB,][GB,][B,G] |
[V:3]E,E,E, E,E,E, |
[V:4]C,,C,,C,, C,,C,,C,, |
[V:1]G2B B2B, |
[V:2][B,G][GB,][GB,] [B,G][B,G][B,G] |
[V:3]E,E,E, E,E,E, |
[V:4]C,,C,,C,, C,,C,,C,, |
[V:1]A,FF F>EF |
[V:2][FA,]A,A, CCC |
[V:3]F,A,C FCA, |
[V:4]F,,F,,F,, A,,A,,A,, |
[V:1]DBB Ecc |
[V:2]D/E/D/C/B,/D/ E/F/E/D/C/E/ |
[V:3]B,zD CzE |
[V:4]B,,/C,/B,,/A,,/G,,/B,,/ C,/D,/C,/B,,/A,,/C,/ |
[V:1]Fdd GcB |
[V:2]F/G/F/E/D/F/ G/A/G/F/E/G/ |
[V:3]DzF EzG |
[V:4]D,/E,/D,/C,/B,,/D,/ E,/F,/E,/D,/C,/E,/ |
[V:1]A/a/g/f/e/d/ c/=B/f/d/c/B/ |
[V:2]AAA F>EF |
[V:3]FAA DDD |
[V:4]F,F,F, D,D,D, |
[V:1]ccc c>=Bc |
[V:2]E2z4 |
[V:3]E4 EE |
[V:4]C,6- |
[V:1]c2>B2 BB |
[V:2]ddd d>^cd |
[V:3]^F/G/A/D/E/F/ G/A/B/A/G/=F/ |
[V:4]C,6- |
[V:1]B>AB AAA |
[V:2]ccc c>=Bc |
[V:3]E/F/G/C/D/E/ F/G/A/G/F/E/ |
[V:4]C,6- |
[V:1]A>GA GGG |
[V:2]BBB B>AB |
[V:3]D/E/F/B,/C/D/ E/F/G/C/D/E/ |
[V:4]C,6 |
[V:1]Ac'c' c'>=bc' |
[V:2]A/F/A/B/c/d/ e/f/g/a/g/f/ |
[V:3]F2z4 |
[V:4]F,,2z4 |
[V:1]c'6- |
[V:2]bbb b>ab |
[V:3]z6 |
[V:4]C,/D,/E,/F,/G,/A,/ B,/C/D/E/D/C/ |
[V:1]c'c'c' c'>=bc' |
[V:2]a4 ef |
[V:3]F,/G,/A,/B,/C/D/ E/F/G/A/G/F/ |
[V:4]F2z4 |
[V:1]c'6- |
[V:2]e/f/g/f/e/d/ c/B/A/G/F/E/ |
[V:3]BBB B>AB |
[V:4]C,,/D,,/E,,/F,,/G,,/A,,/ B,,/C,/D,/E,/D,/C,/ |
[V:1]c'/d'/_e'/d'/e'/d'/ e'/d'/e'/d'/e'/d'/ |
[V:2]FAA AAA |
[V:3]ACC CCC |
[V:4]F,F,F, F,F,F, |
[V:1]_e'c'a f_ec |
[V:2]A4- Ac |
[V:3]C4- CA, |
[V:4]F,6 |
[V:1]^c2>d2 d'd' |
[V:2]F4 z2 |
[V:3]B,4 z2 |
[V:4]B,4 z2 |
[V:1]za/b/a/b/ z^f/g/f/g/ |
[V:2]G2z G2z |
[V:3]D2z D2z |
[V:4]B,2z B,2z |
[V:1]z^c/d/c/d/ zbg |
[V:2]G2z G2z |
[V:3]D2z D2z |
[V:4]B,2z B,2z |
[V:1]f3 g3 |
[V:2]AAA BBB |
[V:3]FFF EEE |
[V:4]CCC C,C,C, |
[V:1]f/g/a/g/f/e/ d/e/f/e/d/c/ |
[V:2]=B6- |
[V:3]F6- |
[V:4]D,6- |
[V:1]=B/c/d/c/B/A/ G/F/E/D/C/=B,/ |
[V:2]B4- Bd |
[V:3]F6 |
[V:4]D,6 |
[V:1]C/D/E/D/F/E/ G/F/A/G/B/A/ |
[V:2]c2z4 |
[V:3]G2z4 |
[V:4]E,2z4 |
[V:1]cBG cBG |
[V:2]G2z4 |
[V:3]B2z4 |
[V:4]E,2z4 |
[V:1]c2B GzF/A/ |
[V:2]G2z4 |
[V:3]B2z4 |
[V:4]E,2z4 |
[V:1]ccc c>=Bc |
[V:2]F/A/G/F/E F/A/G/F/E |
[V:3]zA,B, zA,B, |
[V:4]zF,G, zF,G, |
[V:1]c>=Bc c>Bc |
[V:2]F/A/G/F/E F/A/G/F/E |
[V:3]zA,B, zA,B, |
[V:4]zF,G, zF,G, |
[V:1]c2f f2a |
[V:2]FAA AAA |
[V:3]A,CC CCC |
[V:4]F,F,F, F,F,F, |
[V:1]a2c' c'2G,/A,/ |
[V:2]AAA A2z |
[V:3]CCC Cz2 |
[V:4]F,F,F, F,z2 |
[V:1]B,B,B, B,>A,B, |
[V:2]G/B/A/G/^F G/B/A/G/F |
[V:3]zE,E, zE,E, |
[V:4]zC,,_D,, zC,,D,, |
[V:1]B,>A,B, B,>A,B, |
[V:2]G/B/A/G/^F G/B/A/G/F |
[V:3]zE,E, zE,E, |
[V:4]zC,,_D,, zC,,D,, |
[V:1]B,2E E2G |
[V:2]G[B,G][GB,] [GB,][GB,][GB,] |
[V:3]E,E,E, E,E,E, |
[V:4]C,,C,,C,, C,,C,,C,, |
[V:1]G2B B2B, |
[V:2][GB,][GB,][GB,] [GB,][GB,][GB,] |
[V:3]E,E,E, E,E,E, |
[V:4]C,,C,,C,, C,,C,,C,, |
[V:1]A,FF F>EF |
[V:2]FA,A, CCC |
[V:3]F,A,C FCA, |
[V:4]F,,F,,F,, A,,A,,A,, |
[V:1]DBB B>AB |
[V:2]DDD DDD |
[V:3]B,DF DB,F, |
[V:4]B,,B,,B,, B,,B,,B,, |
[V:1]CCC CDE |
[V:2]B,B,B, B,A,G, |
[V:3]E,E,E, E,F,G, |
[V:4]C,C,C, C,C,C, |
[V:1]Fz2 B3 |
[V:2]A,2z D3 |
[V:3]F,2z4 |
[V:4]F,,F,,F,, F,,>E,,F,, |
[V:1]Az2 G3 |
[V:2]Cz2 B,3 |
[V:3]z6 |
[V:4]F,,F,,F,, F,,>E,,F,, |
[V:1]Fz2 D/E/F/G/A/B/ |
[V:2]A,z2 D3 |
[V:3]z3 B,3 |
[V:4]F,,F,,F,, F,,>E,,F,, |
[V:1]c/d/e/f/g/a/ bb/a/b |
[V:2]Cz2 E3 |
[V:3]A,z2 G,3 |
[V:4]F,,F,,F,, F,,>E,,F,, |
[V:1]az2 ee/d/e |
[V:2]Fz2 BB/A/B |
[V:3]F,z2 GG/F/G |
[V:4]F,,F,,/E,,/F,, F,,F,,F,, |
[V:1]fz2 BB/A/B |
[V:2]Az2 EE/F/E |
[V:3]Fz2 G,G,/F,/G, |
[V:4]F,,F,,/E,,/F,, F,,F,,F,, |
[V:1]Az2 EE/D/E |
[V:2]Fz2 B,B,/A,/B, |
[V:3]F,z2 G,G,/F,/G, |
[V:4]F,,F,,/E,,/F,, F,,F,,F,, |
[V:1]F2z [F2A,2]z |
[V:2]A,2z [F2A,2]z |
[V:3]F,2z [A,2C,2]z |
[V:4]F,,2z F,,2z |
[V:1][F2A,2]z4 |]
[V:2][F2A,2]z4 |]
[V:3][C,2A,2]z4 |]
[V:4]F,,2z4 |]

